X:1
T:A Major Oliver Holden, 1800
T:Isaac Watts, 1709 (Hymn 23, Book 2)  88. 88. (L. M.)
T:Solid Pleasures No copyright. Transcribed from Plain Psalmody, 1800.
%%score [ 1 2 3 ]
L:1/8
M:4/4
K:A
V:1 treble nm="Treble" snm="Tr."
V:2 treble-8 nm="Tenor" snm="T."
V:3 bass nm="Bass" snm="B."
V:1
 A4 | A2 A2 c2 B2 | A4 G4 | A8 | E4 F2 G2 | A2 A2 c2 B2 | c6 d2 | e6 d2 | c3 d c2 B2 | A3 B c2 F2 | %10
w: ||||||* And|mount and|take us far a-|bove The reach of|
 c2 B2 A2 G2 | F6 A2 | c2 c2 A2 A2 | B2 B2 B2 c2 | d2 d2 f2 e2 | d4 c4 | B6 z2 | z8 | z8 | z8 | %20
w: these in- fer- ior|things. *|||||||||
 z8 | z8 | z4 z2 c2 | d2 d2 B2 B2 | (c3 d e2) ^d2 | e6 d2 | c3 d e2 dc | B6 B2 | A8 |] %29
w: |||||||||
V:2
 c4 | c2 c2 e2 d2 | c4 B4 | c8 | A4 A2 B2 | c2 e2 A2 G2 | A6 z2 | z8 | z8 | z8 | z8 | z4 z2 c2 | %12
w: 1.~De-|scend from heav'n, im-|mor- tal|dove,|Stoop down, and|take us on thy|wing;|||||Be-|
 e2 e2 c2 c2 | d2 d2 d2 c2 | B2 A2 d2 c2 | d4 A4 | B6 c2 | d6 e2 | f2 e2 d2 c2 | B6 c2 | %20
w: yond, be- yond this|lo- wer sky, Up|where e- ter- nal|a- ges|roll, Where|so- lid|plea- sures ne- ver|die, And|
 d2 B2 e2 d2 | c4 B4 | c6 A2 | B2 B2 e2 e2 | (c3 B A2) A2 | B6 B2 | c3 B c2 BA | e6 d2 | c8 |] %29
w: fruits im- mor- tal|feast the|soul. Where|so- lid plea- sures|ne- * * ver|die, And|fruits im- mor- tal *|feast the|soul.|
V:3
 A,4 | A,2 A,2 A,2 E,2 | C,4 E,4 | A,,8 | A,,4 A,,2 E,2 | C,2 A,,2 E,2 E,2 | A,6 B,2 | C6 B,2 | %8
w: ||||||* And|mount and|
 A,3 B, A,2 E,2 | A,3 G, F,2 F,2 | A,2 B,2 C2 C,2 | F,6 A,2 | A,2 A,2 A,2 A,2 | E,2 E,2 E,2 A,2 | %14
w: take us far a-|bove the reach of|these in- fer- ior|things. *|||
 D,2 D,2 D,2 A,2 | G,4 A,4 | E,6 A,2 | B,6 C2 | D2 C2 B,2 A,2 | E,6 A,2 | B,2 B,2 C2 B,2 | %21
w: |||||||
 A,4 E,4 | A,6 A,2 | B,2 G,2 E,2 G,2 | A,4 B,4 | E,6 E,2 | A,3 B, A,2 D,2 | E,4 E,4 | A,,8 |] %29
w: ||||||||

